X:1
T:Title
%%score 1 ( 2 3 ) 4
L:1/8
Q:1/4=92
M:4/4
K:Bb
V:1 treble nm="Choir Aahs, Staff-1"
V:2 treble nm="Grand Piano, Soprano"
V:3 treble 
V:4 bass nm="Choir Pad, The Coming of the Kingdom"
V:1
 z8 | z8 | z8 | z8 | z8 | z8 | z8 | z8 | C>D EE EEEC | FE D6 | D>C[K:bass] B,B, B,B,B,B, | %11
 A,B, C6 | A,A, B,<F, F,B, B,2 | B,>B, B,B, B,B,G,B, | B,B, B,2 B,B,B,A, | B,>F, F,6- | %16
 F,2 z2 z4 |] %17
V:2
 [DF][DF][DB][DB] [DB][DB][Ec][DB] | [FA][EG] [DF]>[EG] [DF][CE] [B,D]2 | %2
w: By~James~McGranahan * * * * * * *||
 [DF][DF][DB][DB] [DB][DB][DB][DB] | [DA][DB] [Ec]6 | F[EF][DB][DB] [DB][DB][Dc][DB] | %5
w: |||
 [FA][EG] [DF]>[EG] [DF][CE] [B,D]2 | [DF][DF][EG][EA] [FB][Gc][Fd][Ec] | [EG][EA] [DB]6 | %8
w: |||
 [FA]>[FB] [Ac][Ac] [Ac][Ac][Ac][Ae] | [Bd][Fc] [FB]6 | [FB]>[Fc] [Fd][Fd] [Fd][Fd][Fd][Ff] | %11
w: |||
 [Fe][Fd]c-[Gc-] [Ac-][Bc-][Ac-][Gc] | F[EF] [DF]<[DB] [DB][Ec] [Fd]2 | %13
w: ||
 [_Af]>[Af] [Ge][Gd] [Gc][GB][Ec][GB] | [FA][EG] [DF]2 [Fd][Fd][Fd][Ec] | [DB]>[CA] [DB]6- | %16
w: |||
 [DB]2 z2 z4 |] %17
w: |
V:3
 x8 | x8 | x8 | x8 | x8 | x8 | x8 | x8 | x8 | x8 | x8 | z2 .F2 z4 | x8 | x8 | x8 | x8 | x8 |] %17
V:4
 [B,,B,][B,,B,][B,,F,][B,,F,] [B,,F,][B,,F,][B,,F,][B,,F,] | %1
 [B,,B,][B,,B,] [B,,B,]>[B,,B,] [B,,B,][B,,F,] [B,,F,]2 | %2
 [B,,B,][B,,B,][B,,F,][B,,F,] [B,,F,][B,,F,]G,G, | [D,^F,]G, [=F,A,]6 | %4
 F,F,[B,,F,][B,,F,] [B,,F,][B,,F,][B,,F,][B,,F,] | %5
 [B,,B,][B,,B,] [B,,B,]>[B,,B,] [B,,B,][B,,F,] [B,,F,]2 | %6
 [B,,B,][B,,B,][E,B,][C,C] [D,B,][E,B,][F,B,]F, | F,F, [B,,F,]6 | F,>F, F,F, F,F,F,F, | %9
 F,F, B,,2 D,F, B,2 | F,>F, B,,B,, B,,B,,B,,D, | C,B,,F,=E, F,G,F,_E, | D,C, B,,<B,, B,,B,, B,,2 | %13
 D,>D, E,E, E,E, E,2 | E,E, F,2 F,F,F,F, | F,>F, B,,6- | B,,2 z2 z4 |] %17

